X: 113
T: Cantantibus organis – Allegro moderato
C: Franciszek Walczyński
%%abc-version 2.0
%%abcx-abcm2ps-target-version 5.9.1 (29 Sep 2008)
%%abc-creator hum2abc beta
%%abcx-conversion-date 2021/10/04 07:38:42
%%abc-edited-by Andrzej Borzym
%%abc-edited-by Anastazja Marusiak
%%abcx-initial-encoding-date 2021-07-28
%%humdrum-veritas 1265857581
%%humdrum-veritas-data 2429491631
%%linebreak <none>
%%barnumbers 0
L: 1/4
M: C
N: Derived from pl-kozmzk--mzk-m-346--015_walczynski-franciszek--cantantibus-organis-allegro-moderato.krn
Q: "Allegro moderato."
%%staves {1 2}
V: 1 clef=treble
V: 2 clef=bass
K: D
[V:1] z [I:setbarnb 1]| 
[V:2] C,/D,/ | 
[V:1] zC/D/AG | 
[V:2] A,G,F,E, | 
[V:1] FE^DD/E/ | 
[V:2] D,=C,B,,z | 
[V:1] BAGF | 
[V:2] z^D,/E,/B,A, | 
[V:1] E=DCE | 
[V:2] G,^G,A,=G, | 
[V:1] AGF^E/F/ | 
[V:2] F,E,D,z | 
[V:1] edcB | 
[V:2] z^E,/F,/=ED | 
[V:1] AGFE | 
[V:2] CB,A,^A, | 
[V:1] ^DFBA | 
[V:2] B,=A,^G,F, | 
[V:1] ^GBed | 
[V:2] E,D,C,B,, | 
[V:1] cB/A/dA | 
[V:2] A,,=G,,F,,F, | 
[V:1] GAF^D/E/ | 
[V:2] E,C,D,z | 
[V:1] BAGF | 
[V:2] z^D,/E,/B,A, | 
[V:1] EDCE | 
[V:2] G,^G,A,=G, | 
[V:1] A=G=Fz | 
[V:2] =F,E,D,^C,/D,/ | 
[V:1] z^C/D/AG | 
[V:2] A,G,^F,E, | 
[V:1] ^Fzz^G,/A,/ | 
[V:2] D,^G,,/A,,/D,=C, | 
[V:1] D=C_B,A,/G,/ | 
[V:2] _B,,A,,G,,^C, | 
[V:1] !fermata!^F,3 |]  
[V:2] !fermata!D,3 |]  


